X:592
T:
S:Upptecknad efter vaktmästaresonen Valter Engkvist, Klintehamn.
R:schottis
O:Gotland, Klintehamn
M:2/4
L:1/16
K:G
B2d2 d2d2|edc2 B4|G2B2 G2B2|LB4 LA4|A2c2 c2c2|dcB2 A4|F2A2 F2A2|A2GF
G2D2|B2d2 d2d2|edc2 B4|G2B2 G2B2|LB4 LA4|A2c2 c2c2|dcB2 A4|F2A2 F2A2|G4
z4::g4 f2g2|Le4 Lc4|c2g2 f2e2|Ld4 LB4|B2d2 d2ed|Lc4 LA4|A2d2 d2ed|B4 G4|
g4 f2g2|Le4 Lc4|c2g2 f2e2|Ld4 LB4|B2d2 d2ed|Lc4 LA4|A2ff e2f2|g4 z4:|

